build/category/LayoutOutline.svg

<svg xmlns="http://www.w3.org/2000/svg" fill="none" viewBox="0 0 24 24" focusable="false"><path d="M0 0H24V24H0z"/><path fill="#74767B" fill-rule="evenodd" d="M18.8386 7.99269C19.4914 7.92349 20 7.37114 20 6.7L20 5.3C20 4.58203 19.418 4 18.7 4L5.3 4C4.58203 4 4 4.58203 4 5.3L4 6.7C4 7.37114 4.50858 7.9235 5.16137 7.9927C5.20692 7.99752 5.25317 8 5.3 8L18.7 8C18.7468 8 18.7931 7.99752 18.8386 7.99269ZM7.57719 9.3C7.52175 9.29278 7.4652 9.28906 7.40779 9.28906L5.3 9.28906C5.25317 9.28906 5.20692 9.29154 5.16137 9.29637C4.50858 9.36557 4 9.91792 4 10.5891L4 18.7C4 19.418 4.58203 20 5.3 20L7.40779 20C8.0863 20 8.64341 19.4802 8.70259 18.8171C8.70603 18.7785 8.70779 18.7395 8.70779 18.7L8.70779 10.5891C8.70779 10.5496 8.70603 10.5106 8.70259 10.472C8.64842 9.86499 8.17702 9.37806 7.57719 9.3ZM18.8386 9.29637C18.7931 9.29154 18.7468 9.28906 18.7 9.28906L11.3 9.28906C11.2426 9.28906 11.186 9.29278 11.1306 9.3C10.5308 9.37806 10.0594 9.86499 10.0052 10.472C10.0018 10.5106 10 10.5496 10 10.5891L10 18.7C10 18.7395 10.0018 18.7785 10.0052 18.8171C10.0644 19.4802 10.6215 20 11.3 20L18.7 20C19.418 20 20 19.418 20 18.7L20 10.5891C20 9.91792 19.4914 9.36557 18.8386 9.29637ZM5.6 5.3C5.43431 5.3 5.3 5.43431 5.3 5.6L5.3 6.4C5.3 6.56569 5.43432 6.7 5.6 6.7L18.4 6.7C18.5657 6.7 18.7 6.56569 18.7 6.4L18.7 5.6C18.7 5.43432 18.5657 5.3 18.4 5.3L5.6 5.3ZM5.6 10.5891C5.43431 10.5891 5.3 10.7234 5.3 10.8891L5.3 18.4C5.3 18.5657 5.43431 18.7 5.6 18.7L7.10779 18.7C7.27347 18.7 7.40779 18.5657 7.40779 18.4L7.40779 10.8891C7.40779 10.7234 7.27347 10.5891 7.10779 10.5891L5.6 10.5891ZM11.6 10.5891C11.4343 10.5891 11.3 10.7234 11.3 10.8891L11.3 18.4C11.3 18.5657 11.4343 18.7 11.6 18.7L18.4 18.7C18.5657 18.7 18.7 18.5657 18.7 18.4L18.7 10.8891C18.7 10.7234 18.5657 10.5891 18.4 10.5891L11.6 10.5891Z"/></svg>

<svg xmlns="http://www.w3.org/2000/svg" fill="none" viewBox="0 0 24 24" focusable="false"><path fill="#74767B" fill-rule="evenodd" d="M18.83 7.99A1.3 1.3 0 0 0 20 6.7V5.29C20 4.58 19.41 4 18.7 4H5.29C4.58 4 4 4.58 4 5.29V6.7c0 .67.5 1.22 1.16 1.29.04 0 .09.01.13.01H18.7c.04 0 .09-.01.13-.01M7.57 9.29c-.05 0-.11-.01-.17-.01H5.29c-.04 0-.09.01-.13.01C4.5 9.36 4 9.91 4 10.58v8.12c0 .71.58 1.3 1.29 1.3H7.4c.68 0 1.24-.52 1.3-1.19v-8.34c-.06-.61-.53-1.1-1.13-1.18m11.26 0c-.04 0-.09-.01-.13-.01h-7.41c-.05 0-.11.01-.16.01-.6.08-1.08.57-1.13 1.18v8.34c.06.67.62 1.19 1.29 1.19h7.41c.71 0 1.3-.59 1.3-1.3v-8.12a1.3 1.3 0 0 0-1.17-1.29m-13.23-4a.31.31 0 0 0-.31.3v.81c0 .16.14.3.31.3h12.79c.17 0 .31-.14.31-.3v-.81c0-.16-.14-.3-.31-.3zm0 5.29a.31.31 0 0 0-.31.3v7.52c0 .16.14.3.31.3h1.5a.3.3 0 0 0 .3-.3v-7.52a.3.3 0 0 0-.3-.3zm6 0a.31.31 0 0 0-.31.3v7.52c0 .16.14.3.31.3h6.79c.17 0 .31-.14.31-.3v-7.52c0-.16-.14-.3-.31-.3z"/></svg>
